X:10
T:Ashover simple chords 33
M:3/4
L:1/8
K:Am
(3agf[eC,E,G,] cB d2<[c2C,2E,2G,2] | F[EC,E,G,] GA | c[BG,B,D] d2 g/f/[eC,E,G,] | cB d[eC,E,G,] cB | d[EC,E,G,] Ge B2<[c2C,2E,2G,2] |
(3agf[eC,E,G,] cB | d2<[c2C,2E,2G,2] F[EC,E,G,] | GA c[BG,B,D] d2 | g/f/[eC,E,G,] cB d[eC,E,G,] |
cB d[EC,E,G,] Ge | B2<[c2C,2E,2G,2] B/c/[dG,B,D] | BG f[eC,E,G,] g2 | (3agf[eC,E,G,] cB d[gG,B,D] |
G2 F[EC,E,G,] GA | E[F,A,C] a2 g/f/[eC,E,G,] | cG B[c4C,4E,4G,4] |[dG,B,D] BG f[eC,E,G,] |
g2 (3agf[eC,E,G,] cB | d[gG,B,D] G2 F[EC,E,G,] | GA E[F,A,C] a2 | g/f/[eC,E,G,] cG B[c4C,4E,4G,4] |


